static/img/avatar-light.svg

<svg width="340" height="622" viewBox="0 0 340 622" fill="none" xmlns="http://www.w3.org/2000/svg">
<g clip-path="url(#clip0)">
<rect width="340" height="622" fill="white"/>
<path fill-rule="evenodd" clip-rule="evenodd" d="M158.352 464.16L320.405 463.083L310.422 124.758L40.6655 137.068L67.3197 255.599L18.9789 252.548L0 281.817L26.4789 350.542L60.1168 359.441L78.8765 346.911L60.1168 618.802L183.286 622.013L158.352 464.16Z" fill="#F1CDB5"/>
<path opacity="0.118995" fill-rule="evenodd" clip-rule="evenodd" d="M115.732 460.753L158.308 464.108L165.278 509.362L115.732 460.753Z" fill="black"/>
<path fill-rule="evenodd" clip-rule="evenodd" d="M256.225 246.116L279.669 332.229L288.397 379.725L239.739 380.168L224.413 239.537L256.225 246.116Z" fill="#ECB199"/>
<path fill-rule="evenodd" clip-rule="evenodd" d="M182.026 284.45C194.421 284.45 204.468 274.396 204.468 261.993C204.468 249.591 194.421 239.537 182.026 239.537C169.632 239.537 159.585 249.591 159.585 261.993C159.585 274.396 169.632 284.45 182.026 284.45Z" fill="#242537"/>
<path fill-rule="evenodd" clip-rule="evenodd" d="M311.687 284.45C324.081 284.45 334.128 274.396 334.128 261.993C334.128 249.591 324.081 239.537 311.687 239.537C299.292 239.537 289.245 249.591 289.245 261.993C289.245 274.396 299.292 284.45 311.687 284.45Z" fill="#242537"/>
<path fill-rule="evenodd" clip-rule="evenodd" d="M304.92 161.537C304.92 161.537 273.503 205.851 252.941 215.939C232.38 226.027 217.355 228.746 217.355 228.746L247.307 146.464C247.307 146.464 216.513 201.524 179.968 215.135C143.422 228.746 135.075 231.466 135.075 231.466L154.282 146.825L108.002 235.9L115.818 293.051L74.5878 319.581L46.2145 228.673L45.07 201.431L20.8265 190.144L31.1853 156.976L6.23074 135.967L45.1917 95.6786C45.1917 95.6786 195.279 -48.1935 279.06 16.9101C362.841 82.0136 335.602 135.065 335.602 135.065L312.493 208.814L304.92 161.537Z" fill="#6F4D2E"/>
</g>
<defs>
<clipPath id="clip0">
<rect width="340" height="622" fill="white"/>
</clipPath>
</defs>
</svg>

<svg width="340" height="622" fill="none" xmlns="http://www.w3.org/2000/svg"><g clip-path="url(#clip0)" fill-rule="evenodd" clip-rule="evenodd"><path d="M158.352 464.16l162.053-1.077-9.983-338.325-269.757 12.31L67.32 255.599l-48.341-3.051L0 281.817l26.479 68.725 33.638 8.899 18.76-12.53-18.76 271.891 123.169 3.211-24.934-157.853z" fill="#F1CDB5"/><path opacity=".119" d="M115.732 460.753l42.576 3.355 6.97 45.254-49.546-48.609z" fill="#000"/><path d="M256.225 246.116l23.444 86.113 8.728 47.496-48.658.443-15.326-140.631 31.812 6.579z" fill="#ECB199"/><path d="M182.026 284.45c12.395 0 22.442-10.054 22.442-22.457 0-12.402-10.047-22.456-22.442-22.456-12.394 0-22.441 10.054-22.441 22.456 0 12.403 10.047 22.457 22.441 22.457zM311.687 284.45c12.394 0 22.441-10.054 22.441-22.457 0-12.402-10.047-22.456-22.441-22.456-12.395 0-22.442 10.054-22.442 22.456 0 12.403 10.047 22.457 22.442 22.457z" fill="#242537"/><path d="M304.92 161.537s-31.417 44.314-51.979 54.402c-20.561 10.088-35.586 12.807-35.586 12.807l29.952-82.282s-30.794 55.06-67.339 68.671c-36.546 13.611-44.893 16.331-44.893 16.331l19.207-84.641-46.28 89.075 7.816 57.151-41.23 26.53-28.373-90.908-1.145-27.242-24.244-11.287 10.36-33.168L6.23 135.967l38.96-40.288S195.28-48.194 279.06 16.91c83.781 65.104 56.542 118.155 56.542 118.155l-23.109 73.749-7.573-47.277z" fill="#6F4D2E"/></g><defs><clipPath id="clip0"><path fill="#fff" d="M0 0h340v622H0z"/></clipPath></defs></svg>
